**kern
*ICvox
*G:
*M4/4
*clefG2
r;
=1
*>Letter>B
*>Label>Verse
4r
8d
8d
8d
8c
8B
8c
=2
8B
4.d
2r
=3
4r
4d
8d
4e
8d
=4
4e
8d
16B
16A
8G
8B
8B
8B
=5
4A
8A
[8A
4A]
4r
=6
2r
8r
8B
8d
[8e
=7
8e]
[4.d
4d]
8d
[8B
=8
4.B]
4A
8G
4r
=9
4r
8d
8d
8d
8c
8B
8c
=10
8B
4.d
2r
=11
4r
8d
8d
8d
8d
4r
=12
8e
4g
[8b
8b]
8a
8g
[8e
=13
8e]
[4.d
4d]
8d
[8A
=14
8A]
4r
8G
8B
8d
8B
[8e
=15
2e]
8r
4d
[8B
=16
4.B]
16c
16B
16A
8.G
4G
=17
*>Letter>C
*>Label>Chorus
4r
[2.d
=18
4d]
8c
8B
8c
4d
8B
=19
4.B
16c
16B
8A
4.A
=20
2r
8r
8D
8A
8B
=21
8c
8B
8c
8B
[2d
=22
4.d]
[8B
8B]
8A
4A
=23
2B
2r
=24
1r
=25
4r
[4d
4.d]
[8c
=26
8c]
8c
8B
4c
4d
8B
=27
4.B
16c
16B
4A
4A
=28
2r
8r
8D
8A
8B
=29
8c
4.d
4r
8d
[8e
=30
8e]
4d
8B
8A
8G
4B
=31
4.A
[8G
4G]
4r
=32
1r
=33
*>Letter>B
*>Label>Verse
4r
8d
8d
8d
8c
8B
[8c
=34
8c]
4B
4.d
4r
=35
4r
8d
4d
4e
[8g
=36
8g]
4e
8d
16B
16A
8G
8B
[8B
=37
8B]
8B
8A
8A
4A
4r
=38
2r
8B
8d
8d
[8B
=39
8B]
4e
[8d
4d]
8d
[8A
=40
4A]
2r
4r
=41
4r
8d
8d
8d
8c
8B
[8c
=42
8c]
4B
[4.d
4d]
=43
4r
8d
8d
4d
8e
[8g
=44
8g]
4b
8a
4g
8g
[8g
=45
8g]
4e
[8d
4d]
8d
[8A
=46
4A]
4r
8B
8d
8d
8B
=47
8r
4e
[8d
4d]
8d
[8A
=48
4A]
8r
8B
8d
8d
8B
[8e
=49
4.e]
8d
8e
8g
8e
8d
=50
2d
4r
8d
8e
=51
*>Letter>C
*>Label>Chorus
1d
=52
4r
8c
8B
8c
4d
8B
=53
4.B
16c
16B
4A
[4A
=54
4A]
4r
8r
8D
8A
8B
=55
8c
8B
8c
8B
[2d
=56
4.d]
[8B
8B]
8A
4A
=57
2B
2r
=58
1r
=59
4r
[4d
4.d]
[8c
=60
8c]
8c
8B
4c
4d
8B
=61
4.B
16c
16B
4A
4A
=62
2r
8r
8D
8A
8B
=63
8c
4.d
4r
8r
8d
=64
4e
8d
8B
8A
8G
4B
=65
4.A
[8G
4G]
4r
=66
1r
=67
*>Label>>Interlude
1r
=68
1r
=69
1r
=70
1r
=71
*A:
1r
=72
1r
=73
*>Letter>C
*>Label>Chorus
4r
[2.e
=74
4e]
8d
8c#
8d
4e
8c#
=75
4.c#
16d
16c#
4B
[4B
=76
4B]
4r
8r
8E
8B
8c#
=77
8d
8c#
8d
8c#
2e
=78
4.r
[8c#
8c#]
8B
4B
=79
2c#
2r
=80
1r
=81
4r
[4e
4.e]
[8d
=82
8d]
8d
8c#
4d
4e
8c#
=83
4.c#
16d
16c#
4B
4B
=84
2r
8r
8E
8B
8c#
=85
8d
4.e
4r
8r
[8f#
=86
8f#]
4e
8c#
8B
8A
4c#
=87
2B
4A
4r
=88
2r
8r
8E
8B
8c#
=89
8d
4.e
4r
8e
[8f#
=90
8f#]
4e
8c#
8B
8A
4c#
=91
2B
8c#
8B
8A
8A
=92
2A
8F#
8E
4E
=93
1A
r;
*-
!!!BillboardChartDate: 1974/01/05
!!!BillboardPeak: 12
!!!BillboardWeeksOnChart: 17
!!!COC: Anne Murray
!!!EMD: McGill originally transcribed the live (1997?) version, which ended at measure 67. I've fleshed it out to the end and removed the timestamps. -Nat
!!!ENC: Nathaniel Condit-Schultz
!!!EST: Awating manual error checking and editing.
!!!OTL: Love Song
!!!RDF**chordsym: original McGill chord annotation + (implied pitch class set, with bass pitch in first position)
!!!RDF**harmony: **recip + pitch class of root + harmonic quality
!!!RDF**leadinstrument: original McGill primary instrumentation annotation
!!!RDF**phrase: newline = linebreak in original McGill transcription
!!!RDF**timestamp: McGill audio timestamp in seconds
!!!RDT: 2017/01/12/
!!!SampleActualRank: 60
!!!SampleID#: 0917
!!!SampleTargetRank: 62
